!!!!SEGMENT: pl-sa--70-a-ii-10--008_pergolesi-giovanni-battista--stabat-mater-fac-ut-ardeat.krn
!!!cenid: 17xx:650
!!!COM: Pergolesi, Giovanni Battista
!!!COM-rismid: pe30002483
!!!CDT: 1710/01/04-1736/03
!!!CNT: Italian
!!!OPR: Stabat Mater
!!!OTL: Fac ut ardeat
!!!OMV: 008
!!!PDT:
!!!AGN: Sacred
!!!SMS-siglum: PL-SA
!!!SMS-shelfmark: 70/A II 10
!!!SMS-shelfwork: 001-008 M
!!!SMS-variant:
!!!SMS-altvar:
!!!NIFC-rismid: 1001030091
!!!URL-scan: http://bc.bdsandomierz.pl/dlibra/publication/1341/edition/1309/content
!!!ONB-nifc: UWAGA: części Stabat Mater: Stabat Mater, Cuius animam, O quam tristis, Quae moerebat, Quist est homo+Pro peccatis, Vidit suum, Eja mater, Fac ut ardeat, Sancta Mater, Fac ut portem, Inflammatus, Quando corpus+Amen
**kern	**fba	**kern	**kern	**kern	**dynam	**kern	**text	**kern	**text
*part6	*	*part5	*part4	*part3	*	*part2	*part2	*part1	*part1
*staff6	*	*staff5	*staff4	*staff3	*	*staff2	*staff2	*staff1	*staff1
*I"Organo	*	*I"alto Viola	*I"Violino 2do	*I"Violino 1mo	*	*I"alto	*	*I"Canto	*
*I'org	*	*I'a-vla	*I'vl 2	*I'vl 1	*	*I'A	*	*I'S	*
*clefF4	*	*clefC3	*clefG2	*clefG2	*	*clefC3	*	*clefC1	*
*k[b-e-]	*	*k[b-e-]	*k[b-e-]	*k[b-e-]	*	*k[b-e-]	*	*k[b-e-]	*
*g:	*	*g:	*g:	*g:	*	*g:	*	*g:	*
*M2/2	*	*M2/2	*M2/2	*M2/2	*	*M2/2	*	*M2/2	*
*met(c)	*	*met(c)	*met(c)	*met(c)	*	*met(c|)	*	*met(c)	*
=1	=1	=1	=1	=1	=1	=1	=1	=1	=1
!LO:TX:a:t=P:problem:kolejność znaków w źródle: E-, BB-	!	!LO:TX:a:t=P:problem:kolejność znaków w źródle: e-, B-	!LO:TX:a:t=P:problem:kolejność znaków w źródle: ee-, b-	!LO:TX:a:t=P:problem:kolejność znaków w źródle: ee-, b-	!	!LO:TX:a:t=P:problem:kolejność znaków w źródle: e-, B-	!	!LO:TX:a:t=P:problem:kolejność znaków w źródle: ee-, b-	!
!LO:TX:a:i:t=a due	!	!LO:TX:a:i:t=a due	!LO:TX:a:i:t=a Due	!LO:TX:a:i:t=a Due	!	!LO:TX:a:i:t=a due	!	!	!
!LO:TX:b:i:t=Fac ut ardeat	!	!LO:TX:b:i:t=Fac ut arde	!	!	!	!	!	!	!
!LO:N:vis=00	!	!	!LO:TX:b:i:t=Fac ut arde	!LO:TX:b:i:t=Fac ut ardeat	!	!LO:N:vis=00	!	!	!
!	!	!	!LO:N:vis=00	!	!	!	!	!	!
00r	.	4r	00r	1dd	.	00r	.	1dd	Fac
.	.	4b-\	.	.	.	.	.	.	.
.	.	4a\	.	.	.	.	.	.	.
.	.	4g\	.	.	.	.	.	.	.
=2	=2	=2	=2	=2	=2	=2	=2	=2	=2
.	.	4cc\	.	1ee-	.	.	.	1ee-	ut
.	.	4b-\	.	.	.	.	.	.	.
.	.	4a\	.	.	.	.	.	.	.
.	.	4g\	.	.	.	.	.	.	.
=3	=3	=3	=3	=3	=3	=3	=3	=3	=3
*	*	*2\right	*	*2\right	*	*	*	*2\right	*
.	.	4f#X\	.	2.dd\	.	.	.	2.dd\	ar-
.	.	4d\	.	.	.	.	.	.	.
.	.	2g\	.	.	.	.	.	.	.
.	.	.	.	4b-\	.	.	.	4b-\	-de-
=4	=4	=4	=4	=4	=4	=4	=4	=4	=4
!	!	!	!	!	!	!	!	!	!LO:SIC:s=-at
.	.	2g\	.	4cc\	.	.	.	(>4cc\	-ut
.	.	.	.	4a\	.	.	.	4a\)	.
.	.	2f#X\	.	4dd\	.	.	.	(>4dd\	.
.	.	.	.	4cc\	.	.	.	4cc\)	.
=5	=5	=5	=5	=5	=5	=5	=5	=5	=5
!LO:N:vis=00	!	!	!	!	!	!	!	!	!
00r	.	2g\	1g	4b-\	.	1g	Fac	2b-\	Cor
.	.	.	.	4B-/	.	.	.	.	.
.	.	2r	.	4A/	.	.	.	2g\	me-
.	.	.	.	4G/	.	.	.	.	.
=6	=6	=6	=6	=6	=6	=6	=6	=6	=6
.	.	2r	1b-	4gg\	.	1b-	ut	4gg\	-um
.	.	.	.	4ff\	.	.	.	4ff\	in
.	.	2g\	.	4een\	.	.	.	4een\	.
.	.	.	.	4dd\	.	.	.	4dd\	a-
=7	=7	=7	=7	=7	=7	=7	=7	=7	=7
*	*	*	*	*	*	*2\right	*	*	*
.	.	2g\	2.a/	4cc#X\	.	2.a\	ar-	(>4cc#X\	-man-
.	.	.	.	4a\	.	.	.	4a\)	.
.	.	2fn\	.	[>2dd\	.	.	.	2dd\	-do
.	.	.	4f/	.	.	4f\	-de-	.	.
=8	=8	=8	=8	=8	=8	=8	=8	=8	=8
.	.	1en	4g/	2dd\]	.	4g\	-at	2dd\	Chri-
.	.	.	4en/	.	.	4en\	.	.	.
.	.	.	4a/	2cc#X\	.	4a\	cor	2cc#X\	-st(um)
.	.	.	4g/	.	.	4g\	.	.	.
=9	=9	=9	=9	=9	=9	=9	=9	=9	=9
*2\right	*	*	*	*	*	*	*	*	*
1D	X n	2d\	4f/	1dd	.	2f\	me-	2dd\	De-
.	.	.	4ff\	.	.	.	.	.	.
.	X #	2f#X\	4ee-\	.	.	2d\	-um	2a\	-um
.	.	.	4dd\	.	.	.	.	.	.
=10	=10	=10	=10	=10	=10	=10	=10	=10	=10
1E-	X 7	1g	4ccc\	2dd\	.	4cc\	in	2r	.
.	.	.	4bb-\	.	.	4b-\	.	.	.
.	X n6r	.	4aa\	[>2cc\	.	4a\	a-	2cc\	Chris-
.	.	.	4gg\	.	.	4g\	.	.	.
!	!	!LO:LB:g=original	!	!	!	!	!	!	!
=11	=11	=11	=11	=11	=11	=11	=11	=11	=11
2.D\	X #	2a\	4ff#X\	2cc\]	.	4f#X\	-man-	2cc\	.
.	X 7	.	4dd\	.	.	4d\	.	.	.
*	*	*	*2\right	*	*	*	*	*	*
.	6 4	4r	2gg\	(>2b-\	.	2g\	-do	2b-\	-tum
4BB-/	X 6	4b-\	.	.	.	.	.	.	.
!	!	!	!LO:PB:g=original	!	!	!	!	!	!
=12	=12	=12	=12	=12	=12	=12	=12	=12	=12
4C/	6 5	4cc\	2gg\	1a)	.	2g\	Chris-	1a	de-
4AA/	.	4a\	.	.	.	.	.	.	.
!	!	!	!	!	!	!LO:SIC:s=2f#	!	!	!
4D/	X #	4dd\	2ff#X\	.	.	2f\	-tum	.	.
4C/	.	4cc\	.	.	.	.	.	.	.
=13	=13	=13	=13	=13	=13	=13	=13	=13	=13
4BB-/	X 6	4b-\	2g/	1gg	.	2g\	De-	1g	-um
4BB-/	.	4B-/	.	.	.	.	.	.	.
4AA/	.	4A/	2rg	.	.	2d\	-um	.	.
4GG/	.	4G/	.	.	.	.	.	.	.
!	!	!	!	!	!	!	!	!LO:LB:g=original	!
=14	=14	=14	=14	=14	=14	=14	=14	=14	=14
4G\	.	4g\	2r	1bb-	.	2r	.	1b-	ut
4F\	.	4f\	.	.	.	.	.	.	.
4En\	.	4en\	2gg\	.	.	2g\	Chri-	.	.
4D\	.	4d\	.	.	.	.	.	.	.
=15	=15	=15	=15	=15	=15	=15	=15	=15	=15
4C#X/	6 5	4c#X\	2gg\	2.aa\	.	2g\	-stum	2.a\	si-
4AA/	.	4A\	.	.	.	.	.	.	.
2D\	.	2d\	2ff\	.	.	2f\	.	.	.
.	.	.	.	4ff\	.	.	.	4f/	-bi
!	!	!	!	!LO:LB:g=original	!	!	!	!	!
=16	=16	=16	=16	=16	=16	=16	=16	=16	=16
2D\	4 n2r	2d\	1een	4gg\	.	1en	de-	4g/	com-
.	.	.	.	4een\	.	.	.	4en/	.
2C#X\	6 5	2c#X\	.	4aa\	.	.	.	4a/	-pla-
.	.	.	.	4gg\	.	.	.	4g/	.
!	!	!	!	!	!	!LO:LB:g=original	!	!	!
=17	=17	=17	=17	=17	=17	=17	=17	=17	=17
1D	X 5	1d	1f	4ff\	.	2d\	-um	4f/	.
.	.	.	.	4a/	.	.	.	4a\	.
.	.	.	.	(<4a/	.	2f\	ut	4a\	.
.	X 6	.	.	4b-/)	.	.	.	4b-\	.
=18	=18	=18	=18	=18	=18	=18	=18	=18	=18
1En	X 5	1en	1g	4r	.	1g	si-	4r	.
.	.	.	.	4b-\	.	.	.	4b-\	.
.	.	.	.	(>4b-\	.	.	.	(>4b-\	.
.	X 6	.	.	4cc\)	.	.	.	4cc\)	.
=19	=19	=19	=19	=19	=19	=19	=19	=19	=19
*	*	*	*	*	*	*	*	*	*
1F	X 5	1f	1a	4r	.	1a	-bi	4r	.
.	.	.	.	(>4cc\	.	.	.	4cc\	.
.	.	.	.	4cc\	.	.	.	(>4cc\	.
.	X 6	.	.	4dd\)	.	.	.	4dd\)	.
=20	=20	=20	=20	=20	=20	=20	=20	=20	=20
1G	X 5	1g	1b-	4r	.	1b-	com-	4r	.
.	.	.	.	4dd\	.	.	.	4dd\	.
.	.	.	.	4dd\	.	.	.	4dd\	.
.	X 6	.	.	4ee-X\	.	.	.	4ee-X\	.
!LO:LB:g=original	!	!	!	!	!	!	!	!	!
=21	=21	=21	=21	=21	=21	=21	=21	=21	=21
*	*	*	*	*	*	*	*	*	*
!LO:TX:a:t=P:problem:od tego momentu przy kluczu błędnie 3 bemole	!	!	!	!	!	!	!	!	!
1A	X 5	1a	1cc	4r	.	1cc	-pla-	4r	.
.	.	.	.	4ee-\	.	.	.	4ee-\	.
.	.	.	.	(>4ee-\	.	.	.	4ee-\	.
.	X 6	.	.	4ff\)	.	.	.	4ff\	.
=22	=22	=22	=22	=22	=22	=22	=22	=22	=22
1B-	.	1b-	4r	4r	.	4r	.	4r	.
.	.	.	4b-\	4dd\	.	4b-\	.	4dd\	.
.	.	.	4a\	4cc\	.	4a\	.	4cc\	.
.	.	.	4b-\	4dd\	.	4b-\	.	4dd\	.
=23	=23	=23	=23	=23	=23	=23	=23	=23	=23
4B-\	X 2	4b-\	1cc	1ee-T>	.	1cc	.	1ee-	.
4A\	.	4a\	.	.	.	.	.	.	.
4G\	X 6	4g\	.	.	.	.	.	.	.
4A\	6 5	4a\	.	.	.	.	.	.	.
=24	=24	=24	=24	=24	=24	=24	=24	=24	=24
1B-	.	1b-	4r	4r	.	4r	.	4r	.
.	.	.	4b-\	4dd\	.	4b-\	.	4dd\	.
.	.	.	4a\	4cc\	.	4a\	.	4cc\	.
.	.	.	4b-\	4dd\	.	4b-\	.	4dd\	.
=25	=25	=25	=25	=25	=25	=25	=25	=25	=25
4B-\	X 2	4b-\	1cc	1ee-	.	1cc	.	1ee-	.
4A\	.	4a\	.	.	.	.	.	.	.
4G\	X 6	4g\	.	.	.	.	.	.	.
4A\	6 5	4a\	.	.	.	.	.	.	.
!	!	!	!	!	!	!	!	!LO:LB:g=original	!
=26	=26	=26	=26	=26	=26	=26	=26	=26	=26
!	!	!	!	!LO:TX:a:t=P:problem:znak początku repetycji	!	!	!	!	!
2B-\	.	2.b-\	4.b-\	4.dd\	.	4.b-\	.	4.dd\	.
.	.	.	16a\LL	(>16cc\LL	.	16a\LL	.	16cc\LL	.
.	.	.	16b-\JJ	16dd\JJ)	.	16b-\JJ	.	16dd\JJ	.
4B-\	.	.	2cc\	2ee-\	.	2cc\	.	2ee-\	.
4A\	6 5	4a\	.	.	.	.	.	.	.
!	!	!	!	!LO:TX:a:t=P:problem:znak końca repetycji	!	!	!	!	!
=27	=27	=27	=27	=27	=27	=27	=27	=27	=27
2.B-\	.	2.b-\	4.b-\	4.dd\	.	4.b-\	.	4.dd\	.
.	.	.	16a\LL	(>16cc\LL	.	16a\LL	.	16cc\LL	.
.	.	.	16b-\JJ	16dd\JJ)	.	16b-\JJ	.	16dd\JJ	.
.	.	.	2cc\	2ee-\	.	2cc\	.	2ee-\	.
4A\	6 5	4a\	.	.	.	.	.	.	.
=28	=28	=28	=28	=28	=28	=28	=28	=28	=28
2B-\	.	2b-\	4b-/	1dd	.	4b-\	.	1dd	.
.	.	.	4f/	.	.	4f\	.	.	.
4r	.	4r	2b-\	.	.	2b-\	.	.	.
4D\	X 6	4d\	.	.	.	.	.	.	.
=29	=29	=29	=29	=29	=29	=29	=29	=29	=29
4E-\	6 5	4e-\	2b-/	1cc	.	2b-\	.	1cc	.
4C\	.	4c\	.	.	.	.	.	.	.
!	!	!LO:LB:g=original	!	!	!	!	!	!	!
4F\	.	4f\	2a/	.	.	2a\	.	.	.
4E-\	.	4e-\	.	.	.	.	.	.	.
=30	=30	=30	=30	=30	=30	=30	=30	=30	=30
4D/	X 6	4d\	4r	1b-	.	2r	.	1b-	.
4BB-/	.	4B-/	4d/	.	.	.	.	.	.
4r	.	4r	2g/	.	.	2g\	.	.	.
4BB-/	X 6	4B-/	.	.	.	.	.	.	.
=31	=31	=31	=31	=31	=31	=31	=31	=31	=31
4C/	6 5	4c/	2g/	1a	.	2g\	.	1a	.
4AA/	.	4A/	.	.	.	.	.	.	.
4D/	X #	4d/	2f#X/	.	.	2f#X\	.	.	.
4C/	.	4c/	.	.	.	.	.	.	.
!	!	!	!	!	!	!LO:LB:g=original	!	!	!
=32	=32	=32	=32	=32	=32	=32	=32	=32	=32
4BB-/	X 6	4B-/	1g	4g\	.	1g	.	2g\	.
4GG/	.	4G/	.	4b-\	.	.	.	.	.
4r	.	4r	.	[>2ee-\	.	.	.	2ee-\	.
4G\	X 6	4g\	.	.	.	.	.	.	.
!	!	!	!LO:LB:g=original	!	!	!	!	!	!
=33	=33	=33	=33	=33	=33	=33	=33	=33	=33
4A-X\	6 5	4a-X\	1f	2ee-\]	.	1f	.	2ee-\	.
4F\	.	4f\	.	.	.	.	.	.	.
4B-\	.	4b-\	.	2dd\	.	.	.	2dd\	.
4A-X\	.	4a-\	.	.	.	.	.	.	.
=34	=34	=34	=34	=34	=34	=34	=34	=34	=34
4G\	X 6	4g\	1e-	4r	.	1e-	.	2dd\	.
4E-\	.	4e-\	.	4g/	.	.	.	.	.
4r	.	4r	.	2cc\	.	.	.	2cc\	.
4E-\	X 6	4e-\	.	.	.	.	.	.	.
=35	=35	=35	=35	=35	=35	=35	=35	=35	=35
4F\	6 5	4f\	1d	2cc\	.	2.d\	.	2cc\	.
4D\	.	4d\	.	.	.	.	.	.	.
4G\	.	4g\	.	2bn\	.	.	.	2bn\	.
4F\	X n	4f\	.	.	.	4d\	-ce-	.	.
!LO:LB:g=original	!	!	!	!LO:LB:g=original	!	!	!	!	!
=36	=36	=36	=36	=36	=36	=36	=36	=36	=36
2E-\	X 6	2e-\	1c	(>4cc\	.	1c	-am	1cc	.
.	.	.	.	2ee-\)	.	.	.	.	.
2C/	.	2c\	.	.	.	.	.	.	.
.	.	.	.	4dd\	.	.	.	.	.
=37	=37	=37	=37	=37	=37	=37	=37	=37	=37
!	!	!	!LO:TX:a:t=1	!	!	!LO:TX:a:t=3	!	!	!
!	!	!	!	!	!	!LO:N:vis=0	!	!	!
2rBB	.	2r	1r	4cc\	.	0r	.	2cc\	.
!	!	!	!	!LO:SIC:s=4bn	!	!	!	!	!
.	.	.	.	4b-\	.	.	.	.	.
2c\	.	2cc\	.	4a\	.	.	.	2bn\	.
.	.	.	.	4g\	.	.	.	.	.
=38	=38	=38	=38	=38	=38	=38	=38	=38	=38
2c\	4 2	2cc\	1d	2f#X/	.	.	.	4cc\	.
.	.	.	.	.	.	.	.	2ee-\	.
4B-\	X 6	4b-\	.	2r	.	.	.	.	.
4G\	.	4g\	.	.	.	.	.	4dd\	.
=39	=39	=39	=39	=39	=39	=39	=39	=39	=39
!	!	!	!	!LO:TX:a:t=1	!	!	!	!	!
4c\	.	4cc\	1en	1r	.	1r	.	4cc\	.
4B-\	.	4b-\	.	.	.	.	.	4b-\	.
4A\	.	4a\	.	.	.	.	.	4a\	.
!	!	!	!	!	!	!	!	!	!LO:SIC:s=-ce-
4G\	.	4g\	.	.	.	.	.	4g\	-ci-
=40	=40	=40	=40	=40	=40	=40	=40	=40	=40
2F#X\	6 5	2cc\	2.d/	1dd	.	1d	Fac	2f#X/	-am
[>2G\	.	2b-\	.	.	.	.	.	2r	.
.	.	.	4b-\	.	.	.	.	.	.
=41	=41	=41	=41	=41	=41	=41	=41	=41	=41
!	!	!	!	!	!	!	!	!LO:TX:a:t=1	!
2G\]	X 2	1a	4cc\	1ee-	.	1e-	ut	1r	.
.	.	.	4a\	.	.	.	.	.	.
2F#X\	6 5	.	4dd\	.	.	.	.	.	.
.	.	.	4cc\	.	.	.	.	.	.
!	!	!	!	!	!	!	!	!LO:LB:g=original	!
=42	=42	=42	=42	=42	=42	=42	=42	=42	=42
1G	X 6|	1g	4b-\	2.dd\	.	2.d\	ar-	1dd	Fac
.	.	.	4g\	.	.	.	.	.	.
.	.	.	2gg\	.	.	.	.	.	.
.	.	.	.	4b-\	.	4b-\	-de-	.	.
=43	=43	=43	=43	=43	=43	=43	=43	=43	=43
1A	X 7	1a	2gg\	4cc\	.	4cc\	-at	1ee-	ut
.	.	.	.	4a\	.	4a\	cor	.	.
.	X 6|	.	2ff#X\	4dd\	.	4dd\	.	.	.
.	.	.	.	4cc\	.	4cc\	.	.	.
=44	=44	=44	=44	=44	=44	=44	=44	=44	=44
2G\	.	2g\	2gg\	4b-\	.	2b-\	me-	2.dd\	ar-
.	.	.	.	4g\	.	.	.	.	.
4r	.	4r	2r	[>2dd\	.	2g\	.	.	.
4Fn\	X 6	4fn\	.	.	.	.	.	4b-\	-de-
=45	=45	=45	=45	=45	=45	=45	=45	=45	=45
!	!	!	!LO:SIC:s=1en	!	!	!	!	!	!LO:SIC:s=-at
4G\	6 5	4g\	1e-	2dd\]	.	2g\	.	4cc\	-ut
4En\	.	4en\	.	.	.	.	.	4a\	.
4A\	X n	4a\	.	2cc#X\	.	2f#X\	.	4dd\	.
4G\	.	4g\	.	.	.	.	.	4cc\	Cor
!	!	!LO:LB:g=original	!	!	!	!	!	!	!
=46	=46	=46	=46	=46	=46	=46	=46	=46	=46
4F\	X 6	4f\	2d/	2dd\	.	2g\	-um	4b-\	.
4D\	.	4d\	.	.	.	.	.	4g\	me-
2r	.	2r	2b-\	4r	.	2r	.	2dd\	.
.	.	.	.	4dd\	.	.	.	.	.
=47	=47	=47	=47	=47	=47	=47	=47	=47	=47
!LO:TX:a:t=1	!	!LO:TX:a:t=1	!	!	!	!	!	!	!
1r	.	1r	2b-\	4ee-\	.	1r	.	2dd\	.
.	.	.	.	4cc\	.	.	.	.	.
.	.	.	2a\	4ff\	.	.	.	2cc#X\	-um
.	.	.	.	4ee-\	.	.	.	.	.
=48	=48	=48	=48	=48	=48	=48	=48	=48	=48
1BB-	X 5	1B-	4b-/	1ee-	.	2r	.	2dd\	in
.	.	.	4f/	.	.	.	.	.	.
.	.	.	4f/	.	.	2b-\	in	4r	.
.	X 6	.	4g/	.	.	.	.	4dd\	a-
=49	=49	=49	=49	=49	=49	=49	=49	=49	=49
1C	X 5	1c	4r	1ee-	.	2b-\	a-	4ee-\	-man-
.	.	.	4g/	.	.	.	.	4cc\	.
.	.	.	4g/	.	.	2a\	.	4ff\	.
.	X 6	.	4a/	.	.	.	.	4ee-\	.
=50	=50	=50	=50	=50	=50	=50	=50	=50	=50
1D	X 5	1d	4r	1ff	.	4b-\	-man-	1dd	.
.	.	.	4a/	.	.	4f\	.	.	.
.	.	.	4a/	.	.	4f\	.	.	.
.	X 6	.	4b-/	.	.	4g\	.	.	.
!	!	!	!	!	!	!LO:LB:g=original	!	!	!
=51	=51	=51	=51	=51	=51	=51	=51	=51	=51
1E-	X 5	1e-	4r	1gg	.	4r	.	1ee-	.
.	.	.	4b-\	.	.	4g\	.	.	.
.	.	.	4b-\	.	.	4g\	.	.	.
.	X 6	.	4cc\	.	.	4a\	.	.	.
=52	=52	=52	=52	=52	=52	=52	=52	=52	=52
1F	.	[>1f	4a/	4cc\	.	4r	.	1ff	.
.	.	.	4ff\	4aa\	.	4a\	.	.	.
.	.	.	4een\	4gg\	.	4a\	.	.	.
.	.	.	4ff\	4aa\	.	4b-\	.	.	.
=53	=53	=53	=53	=53	=53	=53	=53	=53	=53
4F\	X 2	4f\]	1gg	1bb-	.	4r	.	1gg	.
4En\	.	4en\	.	.	.	4b-\	.	.	.
4D\	X 6	4d\	.	.	.	4b-\	.	.	.
4E\	6 5	4e\	.	.	.	4cc\	.	.	.
!LO:LB:g=original	!	!	!	!	!	!	!	!	!
=54	=54	=54	=54	=54	=54	=54	=54	=54	=54
1F	.	1f	4r	4r	.	4a\	.	4aa\	.
.	.	.	4ff\	4aa\	.	4f\	.	4a\	.
.	.	.	4een\	4gg\	.	4en\	.	4g\	.
.	.	.	4ff\	4aa\	.	4f\	.	4a\	.
!	!	!	!LO:LB:g=original	!	!	!	!	!	!
=55	=55	=55	=55	=55	=55	=55	=55	=55	=55
!	!	!LO:TX:a:t=P:problem:brak tych taktów w źródle	!	!	!	!	!	!	!
4F\	X 2	1ryy	1gg	1bb-	.	1g	.	1b-	.
4En\	.	.	.	.	.	.	.	.	.
4D\	X 6	.	.	.	.	.	.	.	.
4E\	6 5	.	.	.	.	.	.	.	.
=56	=56	=56	=56	=56	=56	=56	=56	=56	=56
!LO:TX:a:t=P:problem:brak tych taktów w źródle	!	!	!LO:TX:a:t=P:problem:brak tych taktów w źródle	!LO:TX:a:t=P:problem:brak tych taktów w źródle	!	!	!	!	!
1ryy	.	1ryy	1ryy	1ryy	.	4r	.	4r	.
.	.	.	.	.	.	4f\	.	4a\	.
.	.	.	.	.	.	4en\	.	4g\	.
.	.	.	.	.	.	4f\	.	4a\	.
=57	=57	=57	=57	=57	=57	=57	=57	=57	=57
1ryy	.	1ryy	1ryy	1ryy	.	1g	.	1b-	.
=58	=58	=58	=58	=58	=58	=58	=58	=58	=58
1F	.	1ryy	4r	4r	.	4r	.	4r	.
.	.	.	4ff\	4aa\	.	4f\	.	4a\	.
!	!	!	!	!	!	!LO:SIC:s=4en	!	!	!
.	.	.	4ee-\	4gg\	.	4e-\	.	4g\	.
.	.	.	4ff\	4aa\	.	4f\	.	4a\	.
!	!	!	!	!	!	!	!	!LO:PB:g=original	!
=59	=59	=59	=59	=59	=59	=59	=59	=59	=59
4r	.	4r	1aa	1ccc	.	1a	.	1cc	.
4D\	X #7r	4d\	.	.	.	.	.	.	.
4E-\	.	4e-\	.	.	.	.	.	.	.
4F#X\	.	4f#X\	.	.	.	.	.	.	.
!	!	!	!	!LO:LB:g=original	!	!	!	!	!
=60	=60	=60	=60	=60	=60	=60	=60	=60	=60
!	!	!	!LO:TX:a:t=P:problem:znak początku repetycji	!	!	!	!	!	!
2.G\	.	2.g\	4.gg\	4.bb-\	.	4.g\	.	4.b-\	.
.	X 2	.	16ff#X\LL	(>16aa\LL	.	16f#X\LL	.	16a\LL	.
.	.	.	16gg\JJ	16bb-\JJ)	.	16g\JJ	.	16b-\JJ	.
.	.	.	2aa\	2ccc\	.	2a\	-do	2cc\	-do
4F#X\	6 5	4f#X\	.	.	.	.	.	.	.
!	!	!	!LO:TX:a:t=P:problem:znak końca repetycji	!	!	!	!	!	!
=61	=61	=61	=61	=61	=61	=61	=61	=61	=61
2.G\	.	2.g\	4.gg\	4.bb-\	.	4.g\	Chri-	4.b-\	chri-
.	X 2	.	16ff#X\LL	16aa\LL	.	16f#X\LL	-stum	16a\LL	.
.	.	.	16gg\JJ	16bb-\JJ	.	16g\JJ	.	16b-\JJ	.
.	.	.	2aa\	2ccc\	.	2a\	.	2cc\	-stum
4F#X\	6 5	4f#X\	.	.	.	.	.	.	.
!	!	!	!	!	!	!LO:LB:g=original	!	!	!
=62	=62	=62	=62	=62	=62	=62	=62	=62	=62
2G\	.	2g\	2gg\	4bb-\	.	4g\	De-	4r	.
.	.	.	.	4b-/	.	4d\	-um	4b-\	in
2G\	.	[>2g\	2bb-\	4ee-\	.	2b-\	ut	4ee-\	.
.	.	.	.	4dd\	.	.	.	4dd\	.
=63	=63	=63	=63	=63	=63	=63	=63	=63	=63
2G\	4 2	2g\]	1aa	4cc\	.	1a	si-	4cc\	a-
.	.	.	.	4a\	.	.	.	(>4a\	-man-
2F\	6 5	[>2f\	.	4dd\	.	.	.	4dd\)	.
.	.	.	.	4cc\	.	.	.	4cc\	-do
=64	=64	=64	=64	=64	=64	=64	=64	=64	=64
2F\	4 2	2f\]	1gg	4b-\	.	1g	-bi	4b-\	Chri-
.	.	.	.	4g\	.	.	.	(>4g\	.
2E-\	X 6	[>2e-\	.	4cc\	.	.	.	4cc\)	.
.	.	.	.	4b-\	.	.	.	4b-\	-st(um)
=65	=65	=65	=65	=65	=65	=65	=65	=65	=65
2E-\	X 2	2e-\]	1ff	4a/	.	1f	com-	4a\	de-
.	.	.	.	4f/	.	.	.	4f\	.
2D\	X 6	[>2d\	.	4b-/	.	.	.	4b-\	-um
.	.	.	.	4a/	.	.	.	4a\	ut
=66	=66	=66	=66	=66	=66	=66	=66	=66	=66
2D\	X 2	2d\]	1ee-	4g/	.	1e-	-pla-	4g/	si-
.	.	.	.	4e-/	.	.	.	4e-/	-bi
2C\	X 6	[>2c\	.	4a/	.	.	.	4a/	com-
.	.	.	.	4g/	.	.	.	4g/	-pla-
!	!	!LO:PB:g=original	!	!	!	!	!	!	!
=67	=67	=67	=67	=67	=67	=67	=67	=67	=67
!LO:TX:a:t=P:problem:trudny do identyfikacji znak w bc. Przyjęto „7 #4”	!	!	!	!	!	!	!	!	!
2C/	7 #4	2c\]	4dd\	2f#X/	.	2d\	.	2f#X/	-ce-
.	.	.	4ff#X\	.	.	.	.	.	.
4r	.	4r	4gg\	2d/	.	2f#X\	.	2d/	-am
4BB-/	X 6	4B-/	4g/	.	.	.	.	.	.
=68	=68	=68	=68	=68	=68	=68	=68	=68	=68
!	!	!	!	!	!	!	!	!LO:TX:a:t=1	!
4C/	6 5	4c/	2a/	1r	.	2g\	.	1r	.
4AA/	.	4A/	.	.	.	.	.	.	.
4D/	X #	4d/	2f#X/	.	.	2f#X\	-ce-	.	.
4C/	.	4c/	.	.	.	.	.	.	.
=69	=69	=69	=69	=69	=69	=69	=69	=69	=69
!	!	!	!	!	!LO:HP:b:t=f:	!	!	!	!
!	!	!	!	!	!LO:DY:b	!	!	!	!
2BB-/	X 6	2B-/	2g/	1dd	f	2g\	-am	1dd	Fac
2GG/	.	2G/	2r	.	.	2r	.	.	.
=70	=70	=70	=70	=70	=70	=70	=70	=70	=70
!LO:TX:a:t=2	!	!LO:TX:a:t=2	!	!	!	!	!	!	!
!	!	!LO:N:vis=0	!	!	!	!	!	!	!
0r	.	0r	1g	1ee-	.	1g	Fac	1ee-	ut
=71	=71	=71	=71	=71	=71	=71	=71	=71	=71
.	.	.	1b-	2.dd\	.	1b-	ut	2.dd\	ar-
.	.	.	.	4b-\	.	.	.	4b-\	-de-
=72	=72	=72	=72	=72	=72	=72	=72	=72	=72
!LO:TX:a:t=P:problem:trudny do identyfikacji znak w bc. Przyjęto „7”	!	!	!	!	!	!	!	!	!LO:SIC:s=-at
1D	X 7	1d	2.a/	4cc\	.	2.a\	ar-	4cc\	-ut
.	.	.	.	4a\	.	.	.	4a\	.
!	!	!	!	!	!	!	!	!LO:LB:g=original	!
.	.	.	.	4dd\	.	.	.	4dd\	Cor
!	!	!	!LO:SIC:s=4f#	!	!	!	!	!	!
.	.	.	4f/	4cc\	.	4f#X\	-de-	4cc\	.
=73	=73	=73	=73	=73	=73	=73	=73	=73	=73
1E-	X 5	1e-	4g/	2b-\	.	4g\	-at	2b-\	me-
.	.	.	4b-/	.	.	(>4b-\	cor	.	.
.	X 6	.	4a/	[>2cc\	.	4a\)	.	[>2cc\	.
.	.	.	4g/	.	.	4g\	me-	.	.
!LO:LB:g=original	!	!	!	!	!	!	!	!	!
=74	=74	=74	=74	=74	=74	=74	=74	=74	=74
2.D\	X #	2.d\	4f#X/	2cc\]	.	4f#X\	-um	2cc\]	.
.	.	.	4d/	.	.	4d\	ut	.	.
.	.	.	2g/	2b-\	.	2g\	a-	2b-\	.
4BB-/	X 6	4B-\	.	.	.	.	.	.	.
=75	=75	=75	=75	=75	=75	=75	=75	=75	=75
4C/	6 5	4c\	2g/	1at>	.	2g\	-man-	1a	-um
4AA/	.	4A\	.	.	.	.	.	.	.
4D/	X #	4d\	2f#X/	.	.	2f#X\	.	.	.
4C/	.	4c\	.	.	.	.	.	.	.
=76	=76	=76	=76	=76	=76	=76	=76	=76	=76
2BB-/	X 6	2B-\	2g/	4g/	.	2g\	-do	4g\	ut
.	.	.	.	[>4dd\	.	.	.	4dd\	.
2G\	X 6	2g\	2b-/	4dd\]	.	2b-\	.	(>4dd\	si-
.	.	.	.	4ee-\	.	.	.	4ee-\)	-bi
!	!	!	!	!	!	!LO:LB:g=original	!	!	!
=77	=77	=77	=77	=77	=77	=77	=77	=77	=77
1Fn	X 7	1fn	1a	4r	.	1a	Chris-	4r	.
.	.	.	.	4ee-\	.	.	.	4ee-\	Com-
.	.	.	.	4ee-\	.	.	.	(>4ee-\	.
.	X 6	.	.	4dd\	.	.	.	4dd\)	-pla-
!	!	!	!	!LO:LB:g=original	!	!	!	!	!
=78	=78	=78	=78	=78	=78	=78	=78	=78	=78
1E-	X 7	1e-	1g	4r	.	1g	-tum	4r	.
.	.	.	.	(>4dd\	.	.	.	4dd\	.
.	.	.	.	4dd\	.	.	.	(>4dd\	.
.	X 6	.	.	4cc\)	.	.	.	4cc\)	.
!	!	!	!LO:LB:g=original	!	!	!	!	!	!
=79	=79	=79	=79	=79	=79	=79	=79	=79	=79
1D	X 7	1d	1f	4r	.	1f	De-	4r	.
.	.	.	.	(>4cc\	.	.	.	4cc\	.
.	.	.	.	4cc\	.	.	.	(>4cc\	.
.	X 6	.	.	4b-\)	.	.	.	4b-\)	.
=80	=80	=80	=80	=80	=80	=80	=80	=80	=80
1C	X 7	1c	1e-	4r	.	1e-	-um	4r	.
.	.	.	.	4b-/	.	.	.	4b-\	.
.	.	.	.	(<4b-/	.	.	.	4b-\	-ce-
.	X 6	.	.	4a/)	.	.	.	4b-\	-am
=81	=81	=81	=81	=81	=81	=81	=81	=81	=81
2BB-/	.	2B-/	2d/	2b-\	.	2d\	.	2b-\	.
4r	.	4r	4r	2f/	.	4r	.	2f/	ut
4BB-/	.	4B-/	4ee-\	.	.	4d\	ut	.	.
=82	=82	=82	=82	=82	=82	=82	=82	=82	=82
4BB-/	X 6	4B-\	(>4dd\	1g	.	4d\	si-	1g	si-
4C/	.	4c\	4ee-\)	.	.	4e-\	-bi	.	.
4r	.	4r	4r	.	.	4r	.	.	.
4C/	.	4c\	4ff\	.	.	4e-\	com-	.	.
=83	=83	=83	=83	=83	=83	=83	=83	=83	=83
4C/	X 6	4c\	(>4ee-\	(>1a	.	4e-\	-pla-	1a	-bi
4D/	.	4d\	4ff\)	.	.	4f\	.	.	.
4r	.	4r	4r	.	.	4r	.	.	.
4D/	.	4d\	4ff\	.	.	4f\	.	.	.
=84	=84	=84	=84	=84	=84	=84	=84	=84	=84
4D\	X 6	4d\	4ff\	(>1b-)	.	4f\	.	1b-	Com-
4E-\	.	4e-\	4gg\	.	.	4g\	.	.	.
4r	.	4r	4r	.	.	4r	.	.	.
4E-\	.	4e-\	4gg\	.	.	4g\	.	.	.
=85	=85	=85	=85	=85	=85	=85	=85	=85	=85
4E-\	X 6	4e-\	4gg\	(>1cc)	.	4g\	.	1cc	.
4F\	.	4f\	4aa\	.	.	4a\	.	.	.
4r	.	4r	4r	.	.	4r	.	.	.
4F\	.	4f\	4aa\	.	.	4a\	-ce-	.	.
!	!	!LO:LB:g=original	!	!	!	!	!	!	!
=86	=86	=86	=86	=86	=86	=86	=86	=86	=86
4BB-/	.	4B-/	2bb-\	[>1dd)	.	2b-\	-am	1dd	-pla-
4D/	.	4d/	.	.	.	.	.	.	.
4C/	.	4c/	2r	.	.	2r	.	.	.
4BB-/	.	4B-/	.	.	.	.	.	.	.
=87	=87	=87	=87	=87	=87	=87	=87	=87	=87
4E-\	X 7	4e-\	1gg	1dd]	.	1g	Com-	1dd	.
4D\	.	4d\	.	.	.	.	.	.	.
4C/	.	4c\	.	.	.	.	.	.	.
4BB-/	.	4B-\	.	.	.	.	.	.	.
=88	=88	=88	=88	=88	=88	=88	=88	=88	=88
4AA/	X 7	4A/	1gg	[>1cc	.	1g	.	1cc	.
4C/	.	4c/	.	.	.	.	.	.	.
4BB-/	.	4B-/	.	.	.	.	.	.	.
4AA/	.	4A/	.	.	.	.	.	.	.
!	!	!	!	!	!	!	!	!LO:LB:g=original	!
=89	=89	=89	=89	=89	=89	=89	=89	=89	=89
4D/	X #7	4d\	1ff#X	(>1cc]	.	2.f#X\	-pla-	1cc	.
4C/	.	4c\	.	.	.	.	.	.	.
4BB-/	.	4B-\	.	.	.	.	.	.	.
4AA/	.	4A\	.	.	.	4f#\	-ce-	.	.
!LO:LB:g=original	!	!	!	!	!	!	!	!	!
=90	=90	=90	=90	=90	=90	=90	=90	=90	=90
4GG/	X 7	4G/	1gg	1b-)	.	1g	-am	1b-	.
4BB-/	.	4B-/	.	.	.	.	.	.	.
4AA/	.	4A/	.	.	.	.	.	.	.
4GG/	.	4G/	.	.	.	.	.	.	.
=91	=91	=91	=91	=91	=91	=91	=91	=91	=91
4C/	X 7	4c/	1r	1b-	.	1r	.	2.b-\	.
4BB-/	.	4B-/	.	.	.	.	.	.	.
4AA/	.	4A/	.	.	.	.	.	.	.
4GG/	.	4G/	.	.	.	.	.	4b-\	-ce-
!	!	!	!	!	!	!LO:LB:g=original	!	!	!
=92	=92	=92	=92	=92	=92	=92	=92	=92	=92
2FF#X/	6 5	4F#X/	1dd	2a/	.	1d	Fac	2a\	-am
.	.	4f#X\	.	.	.	.	.	.	.
2rBB	.	4e-\	.	2r	.	.	.	2r	.
.	.	4d\	.	.	.	.	.	.	.
=93	=93	=93	=93	=93	=93	=93	=93	=93	=93
!LO:TX:a:t=6:problem:nad liczbą łuk	!	!	!	!	!	!	!	!	!
!LO:N:vis=0	!	!	!	!LO:TX:a:t=1	!	!	!	!LO:TX:a:t=1	!
0r	.	4cc\	1ee-	1r	.	1e-	ut	1r	.
.	.	4b-\	.	.	.	.	.	.	.
.	.	4a\	.	.	.	.	.	.	.
.	.	4g\	.	.	.	.	.	.	.
=94	=94	=94	=94	=94	=94	=94	=94	=94	=94
.	.	2f#X\	4dd\	1dd	.	2.d\	ar-	1dd	Fac
.	.	.	4f#X/	.	.	.	.	.	.
.	.	2r	4en/	.	.	.	.	.	.
.	.	.	4d/	.	.	4dd\	-de-	.	.
=95	=95	=95	=95	=95	=95	=95	=95	=95	=95
!	!	!LO:TX:a:t=1	!	!	!	!	!	!	!
1r	.	1r	4cc\	1ee-X	.	4cc\	-at	1ee-X	ut
.	.	.	4b-\	.	.	4b-\	.	.	.
.	.	.	4a\	.	.	4a\	cor	.	.
.	.	.	4g\	.	.	4g\	.	.	.
=96	=96	=96	=96	=96	=96	=96	=96	=96	=96
1D	X #	1d	2f#X/	4dd\	.	2f#X\	me-	2.dd\	ar-
.	.	.	.	4ff#X\	.	.	.	.	.
.	.	.	2r	4ee-X\	.	2d\	-um	.	.
.	.	.	.	4dd\	.	.	.	4b-\	-de-
=97	=97	=97	=97	=97	=97	=97	=97	=97	=97
1E-	X 6	1e-	1r	4ccc\	.	1r	.	4cc\	.
.	.	.	.	4bb-\	.	.	.	4b-\	.
.	.	.	.	4aa\	.	.	.	4a\	.
.	.	.	.	4gg\	.	.	.	4g\	.
!	!	!	!LO:LB:g=original	!	!	!	!	!	!
=98	=98	=98	=98	=98	=98	=98	=98	=98	=98
2.D\	X #	2.d\	2r	4ff#X\	.	2r	.	2f#X/	.
.	.	.	.	4dd\	.	.	.	.	.
.	.	.	2b-\	[>2gg\	.	2b-\	ut	2g/	.
4BB-/	X 6	4B-/	.	.	.	.	.	.	.
=99	=99	=99	=99	=99	=99	=99	=99	=99	=99
4C/	6 5	4c/	1a	2gg\]	.	1a	si-	2g/	.
4AA/	.	4A/	.	.	.	.	.	.	.
4D/	X #	4d/	.	2ff#X\	.	.	.	2f#X/	.
4C/	.	4c/	.	.	.	.	.	.	.
=100	=100	=100	=100	=100	=100	=100	=100	=100	=100
!	!	!	!	!	!	!	!	!	!LO:SIC:s=-at
4BB-/	X 6	4B-/	2.g/	1gg	.	2.g\	-bi	1g	-ut
4GG/	X 6	4G/	.	.	.	.	.	.	.
2G\	.	2g\	.	.	.	.	.	.	.
.	.	.	4b-/	.	.	4b-\	com-	.	.
!	!	!	!	!LO:LB:g=original	!	!	!	!	!
=101	=101	=101	=101	=101	=101	=101	=101	=101	=101
!	!	!	!	!LO:TX:a:t=1	!	!	!	!LO:TX:a:t=1	!
2G\	X 2	2g\	4dd\	1r	.	4cc\	-pla-	1r	.
.	.	.	4a\	.	.	4a\	.	.	.
2F#X\	6 5	2f#X\	4dd\	.	.	4dd\	-ce-	.	.
.	.	.	4cc\	.	.	4cc\	.	.	.
=102	=102	=102	=102	=102	=102	=102	=102	=102	=102
2G\	.	2g\	2b-\	4r	.	2b-\	-am	4r	.
.	.	.	.	(>4dd\	.	.	.	4dd\	Cor
4r	.	4r	4r	4dd\	.	4r	.	(>4dd\	me-
4G\	.	4g\	4b-\	4ee-\)	.	4b-\	com-	4ee-\)	.
=103	=103	=103	=103	=103	=103	=103	=103	=103	=103
4G\	.	4g\	4b-/	4r	.	4b-\	-pla-	4r	.
4F#X\	X 7	4f#X\	4a/	4ee-\	.	4a\	.	4ee-\	-um
4r	.	4r	4r	(>4ee-\	.	4r	.	4ee-\	ut
4Fn\	X 6	4fn\	4a/	4dd\)	.	4a\	.	4dd\	.
!	!	!LO:LB:g=original	!	!	!	!	!	!	!
=104	=104	=104	=104	=104	=104	=104	=104	=104	=104
4F\	.	4f\	4a/	4r	.	4a\	.	4r	.
4En\	X 7	4en\	4g/	[>4dd\	.	4g\	.	4dd\	si-
4r	.	4r	4r	4dd\]	.	4r	.	(>4dd\	-bi
4E-X\	X 6	4e-X\	4g/	4cc\	.	4g\	.	4cc\)	.
!	!	!	!	!	!	!LO:PB:g=original	!	!LO:LB:g=original	!
=105	=105	=105	=105	=105	=105	=105	=105	=105	=105
4E-\	.	4e-\	4g/	4r	.	4g\	.	4r	.
4D\	X 7	4d\	4f/	[>4cc\	.	4f\	.	4cc\	Com-
4r	.	4r	4r	4cc\]	.	4r	.	(>4cc\	-pla-
4D\	X 6	4d\	4f/	4b-\	.	4f\	.	4b-\)	.
!LO:LB:g=original	!	!	!	!	!	!	!	!	!
=106	=106	=106	=106	=106	=106	=106	=106	=106	=106
4D/	.	4d\	4f/	4r	.	4f\	.	4r	.
4C/	X 7	4c\	4e-/	[>4b-\	.	4e-\	.	4b-\	.
4r	.	4r	4r	4b-\]	.	4r	.	(>4b-\	.
4C/	X 6	4c\	4e-/	4a\	.	4e-\	.	4a\)	.
=107	=107	=107	=107	=107	=107	=107	=107	=107	=107
[<1BB-	.	1B-	4d/	(>4b-\	.	4d\	.	4b-\	.
.	.	.	4b-/	4dd\	.	4b-\	.	4dd\	.
.	.	.	4a/	4cc\	.	4a\	.	4cc\	.
.	.	.	4b-/	4dd\)	.	4b-\	.	4dd\	.
=108	=108	=108	=108	=108	=108	=108	=108	=108	=108
4BB-/]	X 2	4B-/	1cc	1ee-T>	.	1cc	.	1ee-	.
4AA/	.	4A/	.	.	.	.	.	.	.
4GG/	X 6	4G/	.	.	.	.	.	.	.
4AA/	6 5	4A/	.	.	.	.	.	.	.
=109	=109	=109	=109	=109	=109	=109	=109	=109	=109
[<1BB-	.	1B-	4r	4r	.	4r	.	4r	.
.	.	.	4b-/	(>4dd\	.	4b-\	.	4dd\	.
.	.	.	4a/	4cc\	.	4a\	.	4cc\	.
.	.	.	4b-/	4dd\)	.	4b-\	.	4dd\	.
=110	=110	=110	=110	=110	=110	=110	=110	=110	=110
4BB-/]	X 2	4B-/	1cc	1ee-T>	.	1cc	.	1ee-	.
4AA/	.	4A/	.	.	.	.	.	.	.
4GG/	X 6	4G/	.	.	.	.	.	.	.
4AA/	6 5	4A/	.	.	.	.	.	.	.
=111	=111	=111	=111	=111	=111	=111	=111	=111	=111
2.BB-/	.	2.B-/	4b-/	1dd	.	4b-\	.	1dd	.
.	.	.	4f/	.	.	4f\	.	.	.
.	.	.	2b-/	.	.	2b-\	.	.	.
4D\	X 6	4d\	.	.	.	.	.	.	.
=112	=112	=112	=112	=112	=112	=112	=112	=112	=112
4E-\	6 5	4e-\	2b-/	1cc	.	2b-\	.	1cc	.
4C\	.	4c\	.	.	.	.	.	.	.
4F\	.	4f\	2a/	.	.	2a\	.	.	.
4E-\	.	4e-\	.	.	.	.	.	.	.
=113	=113	=113	=113	=113	=113	=113	=113	=113	=113
!	!	!	!	!LO:TX:a:t=P:problem:znak początku repetycji	!	!	!	!	!
4D/	X 6	4d\	4b-/	4r	.	4b-\	.	4r	.
4BB-/	.	4B-\	4g/	4b-/	.	4g\	.	4b-\	.
!	!	!	!LO:LB:g=original	!	!	!	!	!	!
2r	.	2r	4f#X/	4a/	.	4f#X\	.	4a\	.
.	.	.	4g/	4b-/	.	4g\	.	4b-\	.
=114	=114	=114	=114	=114	=114	=114	=114	=114	=114
4r	.	4r	1a	1ccT>	.	1a	.	1cc	.
4F#X\	6 5	4f#X\	.	.	.	.	.	.	.
4En\	.	4en\	.	.	.	.	.	.	.
4F#\	.	4f#\	.	.	.	.	.	.	.
!	!	!	!	!LO:TX:a:t=P:problem:znak końca repetycji	!	!	!	!	!
=115	=115	=115	=115	=115	=115	=115	=115	=115	=115
1G	.	1g	4r	4r	.	4r	.	4r	.
.	.	.	4g/	4b-/	.	4g\	.	4b-\	.
.	.	.	4f#X/	4a/	.	4f#X\	.	4a\	.
.	.	.	4g/	4b-/	.	4g\	.	4b-\	.
=116	=116	=116	=116	=116	=116	=116	=116	=116	=116
4G\	X 2	4g\	1a	1ccT>	.	1a	.	1cc	.
4F#X\	.	4f#X\	.	.	.	.	.	.	.
4En\	X 6	4en\	.	.	.	.	.	.	.
4F#\	6 5	4f#\	.	.	.	.	.	.	.
!	!	!	!	!	!	!LO:LB:g=original	!	!	!
=117	=117	=117	=117	=117	=117	=117	=117	=117	=117
2G\	.	2g\	2g/	(>4b-\	.	4g\	.	2b-\	.
.	.	.	.	4dd\	.	4d\	.	.	.
4r	.	4r	4r	4dd\	.	4d\	.	4r	.
4GG/	.	4G/	4b-/	4ee-\)	.	4e-\	.	4b-\	.
=118	=118	=118	=118	=118	=118	=118	=118	=118	=118
4GG/	.	4G/	4b-/	4r	.	4r	.	4b-\	.
4AA/	.	4A/	4cc/	(>4een\	.	4en\	.	4cc\	.
4r	.	4r	4r	4ee\	.	4e\	.	4r	.
4AA/	.	4A/	4cc/	4ff\)	.	4f\	.	4cc\	.
=119	=119	=119	=119	=119	=119	=119	=119	=119	=119
4AA/	.	4A/	4cc\	4r	.	4r	.	4cc\	.
4BB-/	.	4B-/	4dd\	(>4ff#X\	.	4f#X\	.	2dd\	.
4r	.	4r	4r	4ff#\	.	4f#\	.	.	.
4BB-/	.	4B-/	4dd\	4gg\)	.	4g\	.	4dd\	-ce-
!LO:LB:g=original	!	!LO:LB:g=original	!	!	!	!	!	!LO:LB:g=original	!
=120	=120	=120	=120	=120	=120	=120	=120	=120	=120
4BB-/	.	4B-/	2g/	4r	.	4r	.	2g\	-am
4C/	.	4c/	.	(>4gg\	.	4g\	.	.	.
4r	.	4r	2r	4gg\	.	4g\	.	2r	.
4C#X/	.	4c#X/	.	4aa\)	.	4a\	-ce-	.	.
=121	=121	=121	=121	=121	=121	=121	=121	=121	=121
!LO:TX:b:i:t=Testo Solo	!	!LO:TX:a:t=P:problem:znak początku repetycji	!	!	!	!	!	!	!
1D	X #	1d	1dd	4ff#X\	.	2f#X\	-am	1dd	Fac
.	.	.	.	4dd\	.	.	.	.	.
.	.	.	.	[>2ddd\	.	2dd\	in	.	.
=122	=122	=122	=122	=122	=122	=122	=122	=122	=122
[>1D	.	1d	1ee-	2ddd\]	.	2dd\	a-	1ee-	ut
.	.	.	.	2ccc\	.	2cc\	.	.	.
!	!	!	!	!LO:LB:g=original	!	!	!	!	!
=123	=123	=123	=123	=123	=123	=123	=123	=123	=123
1D_>	.	1d	2.dd\	2ccc\	.	2cc\	-man-	2.dd\	ar-
.	.	.	.	2bb-\	.	2b-\	.	.	.
.	.	.	4b-\	.	.	.	.	4b-\	-de-
!	!	!LO:TX:a:t=P:problem:znak końca repetycji	!	!	!	!	!	!	!
=124	=124	=124	=124	=124	=124	=124	=124	=124	=124
!	!	!	!	!	!	!	!	!	!LO:SIC:s=-at
1D_>	.	1d	4cc\	1aa	.	1a	.	(>4cc\	-ut
.	.	.	4a\	.	.	.	.	4a\)	.
.	.	.	4dd\	.	.	.	.	(>4dd\	Cor
.	.	.	4cc\	.	.	.	.	4cc\)	.
=125	=125	=125	=125	=125	=125	=125	=125	=125	=125
!	!	!	!	!	!	!	!	!	!LO:SIC:s=me-
1D_>	.	1d	4b-\	2gg\	.	1g	.	4b-\	ma-
.	.	.	4dd\	.	.	.	.	4dd\	.
.	.	.	4ee-\	2g/	.	.	.	4ee-\	.
.	.	.	4r	.	.	.	.	4r	.
=126	=126	=126	=126	=126	=126	=126	=126	=126	=126
1D_>	.	1d	4r	2f#X/	.	2f#X\	.	4r	.
.	.	.	4ee-\	.	.	.	.	4ee-\	.
.	.	.	4ee-\	2fn/	.	2fn\	.	4ee-\	.
.	.	.	4dd\	.	.	.	.	4dd\	.
=127	=127	=127	=127	=127	=127	=127	=127	=127	=127
1D]	.	1d	4r	2en/	.	2en\	.	4r	.
.	.	.	4dd\	.	.	.	.	4dd\	.
.	.	.	4dd\	2e-X/	.	2e-X\	.	4dd\	.
.	.	.	4cc\	.	.	.	.	4cc\	.
=128	=128	=128	=128	=128	=128	=128	=128	=128	=128
!	!	!	!	!	!	!	!	!	!LO:SIC:s=-um
4r	.	4r	1dd	1d	.	2d\	-do	1dd	-num
4F#X\	6 5	4f#X\	.	.	.	.	.	.	.
!LO:SIC:s=4En	!	!	!	!	!	!	!	!	!
4E-\	.	4en\	.	.	.	2r	.	.	.
4D\	.	4d\	.	.	.	.	.	.	.
=129	=129	=129	=129	=129	=129	=129	=129	=129	=129
4G\	.	4g\	1r	1b-	.	1b-	Chris-	1r	.
4F\	.	4fn\	.	.	.	.	.	.	.
4E-\	.	4e-X\	.	.	.	.	.	.	.
4D\	.	4d\	.	.	.	.	.	.	.
!	!	!	!	!	!	!LO:LB:g=original	!	!	!
=130	=130	=130	=130	=130	=130	=130	=130	=130	=130
4C\	X 7	4c\	1ee-	1b-	.	1b-	.	1ee-	ut
4E-\	.	4e-\	.	.	.	.	.	.	.
4D\	.	4d\	.	.	.	.	.	.	.
4C\	.	4c\	.	.	.	.	.	.	.
!	!	!	!LO:LB:g=original	!	!	!	!	!	!
=131	=131	=131	=131	=131	=131	=131	=131	=131	=131
4F\	X 7	4f\	1ee-	1a	.	1a	-tum	1ee-	.
4E-\	.	4e-\	.	.	.	.	.	.	.
4D\	.	4d\	.	.	.	.	.	.	.
4C\	.	4c\	.	.	.	.	.	.	.
=132	=132	=132	=132	=132	=132	=132	=132	=132	=132
4BB-\	X 7	4B-\	1dd	1a	.	1a	.	1dd	si-
4D\	.	4d\	.	.	.	.	.	.	.
4C\	.	4c\	.	.	.	.	.	.	.
4BB-\	.	4B-\	.	.	.	.	.	.	.
=133	=133	=133	=133	=133	=133	=133	=133	=133	=133
4E-\	X 7	4e-\	1dd	1g	.	1g	de-	1dd	.
4D\	.	4d\	.	.	.	.	.	.	.
4C\	.	4c\	.	.	.	.	.	.	.
4BB-\	.	4B-\	.	.	.	.	.	.	.
=134	=134	=134	=134	=134	=134	=134	=134	=134	=134
4AA/	X 7	4A\	1cc	1g	.	1g	.	1cc	-bi
4C/	.	4c\	.	.	.	.	.	.	.
4BB-/	.	4B-\	.	.	.	.	.	.	.
4AA/	.	4A\	.	.	.	.	.	.	.
=135	=135	=135	=135	=135	=135	=135	=135	=135	=135
4D/	X #	4d\	1cc	1f#X	.	1f#X	.	2cc\	.
4C/	.	4c\	.	.	.	.	.	.	.
4BB-/	.	4B-\	.	.	.	.	.	2cc\	Com-
4AA/	.	4A\	.	.	.	.	.	.	.
=136	=136	=136	=136	=136	=136	=136	=136	=136	=136
2G\	.	4G/	2b-\	2g/	.	2g\	-um	2b-\	-pla-
.	.	4g\	.	.	.	.	.	.	.
2Fn\	X 6	2fn\	2dd\	2r	.	2r	.	2dd\	.
!LO:LB:g=original	!	!	!	!	!	!	!	!	!
=137	=137	=137	=137	=137	=137	=137	=137	=137	=137
1E-X	X 7	1e-	2dd\	2r	.	2r	.	2dd\	.
.	X 6	.	2cc\	2gg\	.	2g\	ut	2b-\	.
!	!	!	!	!	!	!	!	!LO:LB:g=original	!
=138	=138	=138	=138	=138	=138	=138	=138	=138	=138
1D	X #	1d	2cc\	4ff#X\	.	2f#X\	si-	2cc\	.
.	.	.	.	4dd\	.	.	.	.	.
.	6 4	.	2b-\	[>2gg\	.	4g\	-bi	2b-\	.
.	.	.	.	.	.	4g\	com-	.	.
=139	=139	=139	=139	=139	=139	=139	=139	=139	=139
1D	6 4	1d	1a	2gg\]	.	2g\	-pla-	2.a\	.
.	.	.	.	4ff#X\	.	2f#X\	-ce-	.	.
.	.	.	.	4ff#\	.	.	.	4a\	-ce-
=140	=140	=140	=140	=140	=140	=140	=140	=140	=140
!LO:TX:a:t=P:problem:trudny do identyfikacji znak w bc. Przyjęto „6 4”	!	!	!	!	!	!	!	!	!
2GG/	6 4	2G/	4g/	4g/	.	2g\	-am	2g\	-am
.	.	.	4ff#X\	4ff#X\	.	.	.	.	.
!	!	!LO:LB:g=original	!	!	!	!	!	!	!
2r	.	2r	4gg\	4gg\	.	2r	.	2r	.
.	.	.	4cc#X\	4cc#X\	.	.	.	.	.
=141	=141	=141	=141	=141	=141	=141	=141	=141	=141
!	!	!	!	!	!	!LO:N:vis=00	!	!LO:N:vis=00	!
4r	.	4r	4dd\	4dd\	.	00r	.	00r	.
4A\	X 6|	4a\	4a/	4a/	.	.	.	.	.
4B-\	X 6	4b-\	4b-/	4b-/	.	.	.	.	.
4F#X\	6 5	4f#X\	4f#X/	4f#X/	.	.	.	.	.
=142	=142	=142	=142	=142	=142	=142	=142	=142	=142
2G\	.	2g\	4g/	4g/	.	.	.	.	.
.	.	.	4d/	4d/	.	.	.	.	.
2r	.	2r	4e-/	4e-/	.	.	.	.	.
!	!	!	!LO:SIC:s=4c#	!	!	!	!	!	!
.	.	.	4c/	4c#X/	.	.	.	.	.
=143	=143	=143	=143	=143	=143	=143	=143	=143	=143
4r	.	4r	4d/	4d/	.	.	.	.	.
4D\	X #	4d\	4ff#X\	4ff#X\	.	.	.	.	.
4E-\	X 5	4e-\	4gg\	4gg\	.	.	.	.	.
4BB-/	X 6	4B-\	4b-/	4b-\	.	.	.	.	.
=144	=144	=144	=144	=144	=144	=144	=144	=144	=144
2C\	6 5	2c\	4a/	4a/	.	.	.	.	.
.	.	.	4gg\	4gg\	.	.	.	.	.
2D\	# 4	2d\	4a/	4a/	.	.	.	.	.
.	X 3	.	4ff#X\	4ff#X\	.	.	.	.	.
=145	=145	=145	=145	=145	=145	=145	=145	=145	=145
2GG/	.	2G/	2G/ 2d 2b- 2gg	2G/ 2d 2b- 2gg	.	1r	.	1r	.
2r	.	2r	2r	2r	.	.	.	.	.
==	==	==	==	==	==	==	==	==	==
*-	*-	*-	*-	*-	*-	*-	*-	*-	*-
!!!system-decoration: [(s1,s2)][(s3,s4,s5)]s6
!!!RDF**kern: > = above
!!!RDF**kern: < = below
!!!EED: Mateusz Mrugas
!!!EST: 2020-11-29
!!!ENC: Tomasz Grochalski
!!!END: 2020-06-09
